app/assets/images/icons/active/flights--line.svg

<?xml version="1.0" encoding="UTF-8" standalone="no"?>
<svg width="32px" height="232px" viewBox="0 0 32 232" version="1.1" xmlns="http://www.w3.org/2000/svg" xmlns:xlink="http://www.w3.org/1999/xlink" xmlns:sketch="http://www.bohemiancoding.com/sketch/ns">
    <title>flights-line</title>
    <description>Created with Sketch (http://www.bohemiancoding.com/sketch)</description>
    <defs></defs>
    <g id="Categories" stroke="none" stroke-width="1" fill="none" fill-rule="evenodd" sketch:type="MSPage">
        <path d="M23.202,148.999501 L23.198,148.999501 C21.377,148.993501 20.608,147.648501 20.044,146.193501 L17.891,139.034501 L14.678,142.247501 C14.458,142.470501 14.204,142.655501 13.922,142.800501 L14.092,146.687501 C14.104,147.741501 13.272,148.585501 12.237,148.601501 C11.245,148.587501 10.485,147.923501 10.274,146.909501 L9.409,143.079501 L5.647,142.152501 C4.688,142.079501 3.936,141.290501 3.911,140.308501 C3.922,139.249501 4.758,138.415501 5.774,138.415501 L9.678,138.587501 C9.825,138.302501 10.012,138.040501 10.239,137.812501 L13.45,134.603501 L6.374,132.478501 C4.854,131.896501 3.508,131.126501 3.5,129.300501 C3.506,127.616501 4.885,126.239501 6.569,126.226501 L20.481,127.572501 L23.165,124.888501 C24.36,123.702501 26.424,123.704501 27.606,124.890501 C28.825,126.114501 28.821,128.103501 27.598,129.321501 L24.926,131.993501 L26.27,145.839501 C26.262,147.624501 24.883,148.999501 23.202,148.999501 L23.202,148.999501 L23.202,148.999501 L23.202,148.999501 Z M18.749,135.630501 L21.747,145.609501 C22.319,147.079501 22.696,147.198501 23.204,147.198501 C23.899,147.198501 24.469,146.624501 24.473,145.919501 L23.053,131.322501 L26.325,128.048501 C26.846,127.528501 26.848,126.681501 26.329,126.159501 C25.827,125.653501 24.944,125.661501 24.436,126.163501 L21.153,129.444501 L6.489,128.023501 C5.879,128.032501 5.305,128.605501 5.301,129.300501 C5.303,129.804501 5.42,130.183501 6.956,130.777501 L16.854,133.745501 L11.516,139.083501 C11.342,139.257501 11.223,139.474501 11.165,139.722501 L10.993,140.446501 L5.739,140.214501 C5.745,140.216501 5.709,140.251501 5.709,140.296501 C5.711,140.312501 5.747,140.355501 5.79,140.355501 L5.995,140.382501 L10.92,141.599501 L12.034,146.529501 C12.112,146.905501 12.295,146.825501 12.292,146.735501 L12.063,141.489501 L12.786,141.318501 C13.028,141.259501 13.235,141.144501 13.401,140.978501 L18.749,135.630501 L18.749,135.630501 Z M18.749,135.630501" id="flights-line--lp-blue" fill="#206FAC" sketch:type="MSShapeGroup"></path>
        <path d="M23.202,108.999501 L23.198,108.999501 C21.377,108.993501 20.608,107.648501 20.044,106.193501 L17.891,99.0345006 L14.678,102.247501 C14.458,102.470501 14.204,102.655501 13.922,102.800501 L14.092,106.687501 C14.104,107.741501 13.272,108.585501 12.237,108.601501 C11.245,108.587501 10.485,107.923501 10.274,106.909501 L9.409,103.079501 L5.647,102.152501 C4.688,102.079501 3.936,101.290501 3.911,100.308501 C3.922,99.2495006 4.758,98.4155006 5.774,98.4155006 L9.678,98.5875006 C9.825,98.3025006 10.012,98.0405006 10.239,97.8125006 L13.45,94.6035006 L6.374,92.4785006 C4.854,91.8965006 3.508,91.1265006 3.5,89.3005006 C3.506,87.6165006 4.885,86.2395006 6.569,86.2265006 L20.481,87.5725006 L23.165,84.8885006 C24.36,83.7025006 26.424,83.7045006 27.606,84.8905006 C28.825,86.1145006 28.821,88.1035006 27.598,89.3215006 L24.926,91.9935006 L26.27,105.839501 C26.262,107.624501 24.883,108.999501 23.202,108.999501 L23.202,108.999501 L23.202,108.999501 L23.202,108.999501 Z M18.749,95.6305006 L21.747,105.609501 C22.319,107.079501 22.696,107.198501 23.204,107.198501 C23.899,107.198501 24.469,106.624501 24.473,105.919501 L23.053,91.3225006 L26.325,88.0485006 C26.846,87.5285006 26.848,86.6815006 26.329,86.1595006 C25.827,85.6535006 24.944,85.6615006 24.436,86.1635006 L21.153,89.4445006 L6.489,88.0235006 C5.879,88.0325006 5.305,88.6055006 5.301,89.3005006 C5.303,89.8045006 5.42,90.1835006 6.956,90.7775006 L16.854,93.7455006 L11.516,99.0835006 C11.342,99.2575006 11.223,99.4745006 11.165,99.7225006 L10.993,100.446501 L5.739,100.214501 C5.745,100.216501 5.709,100.251501 5.709,100.296501 C5.711,100.312501 5.747,100.355501 5.79,100.355501 L5.995,100.382501 L10.92,101.599501 L12.034,106.529501 C12.112,106.905501 12.295,106.825501 12.292,106.735501 L12.063,101.489501 L12.786,101.318501 C13.028,101.259501 13.235,101.144501 13.401,100.978501 L18.749,95.6305006 L18.749,95.6305006 Z M18.749,95.6305006" id="flights-line--white" fill="#FFFFFF" sketch:type="MSShapeGroup"></path>
        <path d="M23.202,68.9995006 L23.198,68.9995006 C21.377,68.9935006 20.608,67.6485006 20.044,66.1935006 L17.891,59.0345006 L14.678,62.2475006 C14.458,62.4705006 14.204,62.6555006 13.922,62.8005006 L14.092,66.6875006 C14.104,67.7415006 13.272,68.5855006 12.237,68.6015006 C11.245,68.5875006 10.485,67.9235006 10.274,66.9095006 L9.409,63.0795006 L5.647,62.1525006 C4.688,62.0795006 3.936,61.2905006 3.911,60.3085006 C3.922,59.2495006 4.758,58.4155006 5.774,58.4155006 L9.678,58.5875006 C9.825,58.3025006 10.012,58.0405006 10.239,57.8125006 L13.45,54.6035006 L6.374,52.4785006 C4.854,51.8965006 3.508,51.1265006 3.5,49.3005006 C3.506,47.6165006 4.885,46.2395006 6.569,46.2265006 L20.481,47.5725006 L23.165,44.8885006 C24.36,43.7025006 26.424,43.7045006 27.606,44.8905006 C28.825,46.1145006 28.821,48.1035006 27.598,49.3215006 L24.926,51.9935006 L26.27,65.8395006 C26.262,67.6245006 24.883,68.9995006 23.202,68.9995006 L23.202,68.9995006 L23.202,68.9995006 L23.202,68.9995006 Z M18.749,55.6305006 L21.747,65.6095006 C22.319,67.0795006 22.696,67.1985006 23.204,67.1985006 C23.899,67.1985006 24.469,66.6245006 24.473,65.9195006 L23.053,51.3225006 L26.325,48.0485006 C26.846,47.5285006 26.848,46.6815006 26.329,46.1595006 C25.827,45.6535006 24.944,45.6615006 24.436,46.1635006 L21.153,49.4445006 L6.489,48.0235006 C5.879,48.0325006 5.305,48.6055006 5.301,49.3005006 C5.303,49.8045006 5.42,50.1835006 6.956,50.7775006 L16.854,53.7455006 L11.516,59.0835006 C11.342,59.2575006 11.223,59.4745006 11.165,59.7225006 L10.993,60.4465006 L5.739,60.2145006 C5.745,60.2165006 5.709,60.2515006 5.709,60.2965006 C5.711,60.3125006 5.747,60.3555006 5.79,60.3555006 L5.995,60.3825006 L10.92,61.5995006 L12.034,66.5295006 C12.112,66.9055006 12.295,66.8255006 12.292,66.7355006 L12.063,61.4895006 L12.786,61.3185006 C13.028,61.2595006 13.235,61.1445006 13.401,60.9785006 L18.749,55.6305006 L18.749,55.6305006 Z M18.749,55.6305006" id="flights-line--body-grey" fill="#67737B" sketch:type="MSShapeGroup"></path>
        <path d="M23.202,28.9995006 L23.198,28.9995006 C21.377,28.9935006 20.608,27.6485006 20.044,26.1935006 L17.891,19.0345006 L14.678,22.2475006 C14.458,22.4705006 14.204,22.6555006 13.922,22.8005006 L14.092,26.6875006 C14.104,27.7415006 13.272,28.5855006 12.237,28.6015006 C11.245,28.5875006 10.485,27.9235006 10.274,26.9095006 L9.409,23.0795006 L5.647,22.1525006 C4.688,22.0795006 3.936,21.2905006 3.911,20.3085006 C3.922,19.2495006 4.758,18.4155006 5.774,18.4155006 L9.678,18.5875006 C9.825,18.3025006 10.012,18.0405006 10.239,17.8125006 L13.45,14.6035006 L6.374,12.4785006 C4.854,11.8965006 3.508,11.1265006 3.5,9.30050063 C3.506,7.61650063 4.885,6.23950063 6.569,6.22650063 L20.481,7.57250063 L23.165,4.88850063 C24.36,3.70250063 26.424,3.70450063 27.606,4.89050063 C28.825,6.11450063 28.821,8.10350063 27.598,9.32150063 L24.926,11.9935006 L26.27,25.8395006 C26.262,27.6245006 24.883,28.9995006 23.202,28.9995006 L23.202,28.9995006 L23.202,28.9995006 L23.202,28.9995006 Z M18.749,15.6305006 L21.747,25.6095006 C22.319,27.0795006 22.696,27.1985006 23.204,27.1985006 C23.899,27.1985006 24.469,26.6245006 24.473,25.9195006 L23.053,11.3225006 L26.325,8.04850063 C26.846,7.52850063 26.848,6.68150063 26.329,6.15950063 C25.827,5.65350063 24.944,5.66150063 24.436,6.16350063 L21.153,9.44450063 L6.489,8.02350063 C5.879,8.03250063 5.305,8.60550063 5.301,9.30050063 C5.303,9.80450063 5.42,10.1835006 6.956,10.7775006 L16.854,13.7455006 L11.516,19.0835006 C11.342,19.2575006 11.223,19.4745006 11.165,19.7225006 L10.993,20.4465006 L5.739,20.2145006 C5.745,20.2165006 5.709,20.2515006 5.709,20.2965006 C5.711,20.3125006 5.747,20.3555006 5.79,20.3555006 L5.995,20.3825006 L10.92,21.5995006 L12.034,26.5295006 C12.112,26.9055006 12.295,26.8255006 12.292,26.7355006 L12.063,21.4895006 L12.786,21.3185006 C13.028,21.2595006 13.235,21.1445006 13.401,20.9785006 L18.749,15.6305006 L18.749,15.6305006 Z M18.749,15.6305006" id="flights-line--title-grey" fill="#3A434E" sketch:type="MSShapeGroup"></path>
    </g>
</svg>

<svg width="32" height="232" viewBox="0 0 32 232" xmlns="http://www.w3.org/2000/svg" xmlns:sketch="http://www.bohemiancoding.com/sketch/ns"><title>flights-line</title><g sketch:type="MSPage" fill="none"><path d="M23.202 149h-.004c-1.821-.006-2.59-1.351-3.154-2.806l-2.153-7.159-3.213 3.213c-.22.223-.474.408-.756.553l.17 3.887c.012 1.054-.82 1.898-1.855 1.914-.992-.014-1.752-.678-1.963-1.692l-.865-3.83-3.762-.927c-.959-.073-1.711-.862-1.736-1.844.011-1.059.847-1.893 1.863-1.893l3.904.172c.147-.285.334-.547.561-.775l3.211-3.209-7.076-2.125c-1.52-.582-2.866-1.352-2.874-3.178.006-1.684 1.385-3.061 3.069-3.074l13.912 1.346 2.684-2.684c1.195-1.186 3.259-1.184 4.441.002 1.219 1.224 1.215 3.213-.008 4.431l-2.672 2.672 1.344 13.846c-.008 1.785-1.387 3.16-3.068 3.16zm-4.453-13.369l2.998 9.979c.572 1.47.949 1.589 1.457 1.589.695 0 1.265-.574 1.269-1.279l-1.42-14.597 3.272-3.274c.521-.52.523-1.367.004-1.889-.502-.506-1.385-.498-1.893.004l-3.283 3.281-14.664-1.421c-.61.009-1.184.582-1.188 1.277.002.504.119.883 1.655 1.477l9.898 2.968-5.338 5.338c-.174.174-.293.391-.351.639l-.172.724-5.254-.232-.03.082.081.059.205.027 4.925 1.217 1.114 4.93c.078.376.261.296.258.206l-.229-5.246.723-.171c.242-.059.449-.174.615-.34l5.348-5.348zm0 0" fill="#206FAC" sketch:type="MSShapeGroup"/><path d="M23.202 109h-.004c-1.821-.006-2.59-1.351-3.154-2.806l-2.153-7.159-3.213 3.213c-.22.223-.474.408-.756.553l.17 3.887c.012 1.054-.82 1.898-1.855 1.914-.992-.014-1.752-.678-1.963-1.692l-.865-3.83-3.762-.927c-.959-.073-1.711-.862-1.736-1.844.011-1.059.847-1.893 1.863-1.893l3.904.172c.147-.285.334-.547.561-.775l3.211-3.209-7.076-2.125c-1.52-.582-2.866-1.352-2.874-3.178.006-1.684 1.385-3.061 3.069-3.074l13.912 1.346 2.684-2.684c1.195-1.186 3.259-1.184 4.441.002 1.219 1.224 1.215 3.213-.008 4.431l-2.672 2.672 1.344 13.846c-.008 1.785-1.387 3.16-3.068 3.16zm-4.453-13.369l2.998 9.979c.572 1.47.949 1.589 1.457 1.589.695 0 1.265-.574 1.269-1.279l-1.42-14.597 3.272-3.274c.521-.52.523-1.367.004-1.889-.502-.506-1.385-.498-1.893.004l-3.283 3.281-14.664-1.421c-.61.009-1.184.582-1.188 1.277.002.504.119.883 1.655 1.477l9.898 2.968-5.338 5.338c-.174.174-.293.391-.351.639l-.172.724-5.254-.232-.03.082.081.059.205.027 4.925 1.217 1.114 4.93c.078.376.261.296.258.206l-.229-5.246.723-.171c.242-.059.449-.174.615-.34l5.348-5.348zm0 0" fill="#fff" sketch:type="MSShapeGroup"/><path d="M23.202 69h-.004c-1.821-.006-2.59-1.351-3.154-2.806l-2.153-7.159-3.213 3.213c-.22.223-.474.408-.756.553l.17 3.887c.012 1.054-.82 1.898-1.855 1.914-.992-.014-1.752-.678-1.963-1.692l-.865-3.83-3.762-.927c-.959-.073-1.711-.862-1.736-1.844.011-1.059.847-1.893 1.863-1.893l3.904.172c.147-.285.334-.547.561-.775l3.211-3.209-7.076-2.125c-1.52-.582-2.866-1.352-2.874-3.178.006-1.684 1.385-3.061 3.069-3.074l13.912 1.346 2.684-2.684c1.195-1.186 3.259-1.184 4.441.002 1.219 1.224 1.215 3.213-.008 4.431l-2.672 2.672 1.344 13.846c-.008 1.785-1.387 3.16-3.068 3.16zm-4.453-13.369l2.998 9.979c.572 1.47.949 1.589 1.457 1.589.695 0 1.265-.574 1.269-1.279l-1.42-14.597 3.272-3.274c.521-.52.523-1.367.004-1.889-.502-.506-1.385-.498-1.893.004l-3.283 3.281-14.664-1.421c-.61.009-1.184.582-1.188 1.277.002.504.119.883 1.655 1.477l9.898 2.968-5.338 5.338c-.174.174-.293.391-.351.639l-.172.724-5.254-.232-.03.082.081.059.205.027 4.925 1.217 1.114 4.93c.078.376.261.296.258.206l-.229-5.246.723-.171c.242-.059.449-.174.615-.34l5.348-5.348zm0 0" fill="#67737B" sketch:type="MSShapeGroup"/><path d="M23.202 29h-.004c-1.821-.006-2.59-1.351-3.154-2.806l-2.153-7.159-3.213 3.213c-.22.223-.474.408-.756.553l.17 3.887c.012 1.054-.82 1.898-1.855 1.914-.992-.014-1.752-.678-1.963-1.692l-.865-3.83-3.762-.927c-.959-.073-1.711-.862-1.736-1.844.011-1.059.847-1.893 1.863-1.893l3.904.172c.147-.285.334-.547.561-.775l3.211-3.209-7.076-2.125c-1.52-.582-2.866-1.352-2.874-3.178.006-1.684 1.385-3.061 3.069-3.074l13.912 1.346 2.684-2.684c1.195-1.186 3.259-1.184 4.441.002 1.219 1.224 1.215 3.213-.008 4.431l-2.672 2.672 1.344 13.846c-.008 1.785-1.387 3.16-3.068 3.16zm-4.453-13.369l2.998 9.979c.572 1.47.949 1.589 1.457 1.589.695 0 1.265-.574 1.269-1.279l-1.42-14.597 3.272-3.274c.521-.52.523-1.367.004-1.889-.502-.506-1.385-.498-1.893.004l-3.283 3.281-14.664-1.421c-.61.009-1.184.582-1.188 1.277.002.504.119.883 1.655 1.477l9.898 2.968-5.338 5.338c-.174.174-.293.391-.351.639l-.172.724-5.254-.232-.03.082.081.059.205.027 4.925 1.217 1.114 4.93c.078.376.261.296.258.206l-.229-5.246.723-.171c.242-.059.449-.174.615-.34l5.348-5.348zm0 0" fill="#3A434E" sketch:type="MSShapeGroup"/></g></svg>
